X:1918
T:Father Kelly's Reel
O:england
M:4/4
L:1/8
Q:1/4=200
C:Trad
K:G
GA|B2 GB AGEG|DGGF GABd|c2 AB cBAG|EAAG FDGA|
B2 GB AGEG|DGGF GABd|cdef gfge|dBAB G2:|
Bc|d2 Bd gdBc|d2 Bd gdBd|e2 ce agfe|defg agfe|
d2 Bd gdBc|d2 Bd gdBd|cBcd efge|dBAB G2:|


